!!!!SEGMENT: pl-kk--kk-i-386--001-004_anonim--missa-prima-graduale-alleluia.krn
!!!cenid: 18xx:4502
!!!COM: Anonim
!!!COM-rismID: pe30004985
!!!CDT:
!!!CNT:
!!!OPR: [Missa prima]
!!!OTL: Graduale/Alleluia
!!!OMV: 004
!!!PDT:
!!!AGN: Sacred
!!!YEC: Copyright 2022 Narodowy Instytut Fryderyka Chopina (https://polishscores.org)
!!!YEM: License CC-BY-4.0 (https://creativecommons.org/licenses/by/4.0)
!!!SMS-siglum: PL-Kk
!!!SMS-shelfmark: Kk.I.386
!!!SMS-variant:
!!!SMS-altvar:
!!!SMS-shelfwork: 001-004 M
!!!NIFC-rismSourceID: 1001218240
!!!NIFC-rismChildID: 1001218242
!!!NIFC-islandoraID: pl-kk:16060
!!!URL-pdf-islandora: https://repozytorium.nifc.pl/islandora/object/pl-kk%3A16060/datastream/PDF/view
!!!URL-scan: https://polish.musicsources.pl/pl/lokalizacje/galeria/rekopisy/7134/3 @EN{Scan on Polish Music Sources Website} @PL{Skany w portalu Dziedzictwo Muzyki Polskiej w otwartym dostępie}
!!!IIIF:
!!!ONB-nifc: UWAGA: Części Missy Prima: Rorate, Kyrie, Gloria, Graduale, Offertorium, Sanctus, Benedicuts, Agnus, Dona. Zakres skanów: S – 3-6, A – 12-15, T – 22-25, B – 32-25
!!!AIN: 1 alto 1 bass 1 soprn 1 tenor
!!!key:
**kern	**text	**kern	**text	**kern	**text	**kern	**text
*part4	*part4	*part3	*part3	*part2	*part2	*part1	*part1
*staff4	*staff4	*staff3	*staff3	*staff2	*staff2	*staff1	*staff1
*I"Basso.	*	*I"Tenore.	*	*I"Alto.	*	*I"Soprano.	*
*I'B	*	*I'T	*	*I'A	*	*I'S.	*
*Ibass	*	*Itenor	*	*Ialto	*	*Isoprn	*
*ICvox	*	*ICvox	*	*ICvox	*	*ICvox	*
*clefF4	*	*clefC4	*	*clefC3	*	*clefC1	*
*k[b-]	*	*k[b-]	*	*k[b-]	*	*k[b-]	*
*F:	*	*F:	*	*F:	*	*F:	*
*M3/2	*	*M3/2	*	*M3/2	*	*M3/2	*
=1	=1	=1	=1	=1	=1	=1	=1
2r	.	2r	.	2r	.	2r	.
*2\right	*	*2\right	*	*2\right	*	*2\right	*
2C/	Al-	2e\	Al-	2g\	Al-	2cc\	Al-
2c\	-le-	2e\	-le-	2g\	-le-	2cc\	-le-
=2	=2	=2	=2	=2	=2	=2	=2
2G\	-lu-	2d\	-lu-	2g\	-lu-	2b-\	-lu-
2F\	-ia	2d\	-ia	2g\	-ia	2b-\	-ia
2E\	al-	2e\	al-	2g\	al-	2cc\	al-
=3	=3	=3	=3	=3	=3	=3	=3
1D	-le-	1f	.	1fn	-le-	1cc	-le-
2D\	-lu-	2d\	-le-	2f\	-lu-	2b-\	-lu-
=4	=4	=4	=4	=4	=4	=4	=4
1C	-ia	2G/	-lu-	2e\	-ia	1cc	-ia
.	.	2A\	-ia	2e\	al-	.	.
2D\	al-	2B-\	al-	2f\	-le-	(4b-\	al-
.	.	.	.	.	.	4a\)	.
=5	=5	=5	=5	=5	=5	=5	=5
2E\	-le-	2c\	-le-	2g\	-lu-	2g\	-le-
1F#X	-lu-	2.d\	.	2.f#X\	-ia	1a	-lu-
.	.	4c\	-lu-	4e\	al-	.	.
!LO:LB:g=original	!	!LO:LB:g=original	!	!LO:LB:g=original	!	!	!
=6	=6	=6	=6	=6	=6	=6	=6
2G\	-ia	2B-\	-ia	2d\	-le-	2b-\	-ia
2D\	al-	2A\	al-	2f#X\	.	1dd	la-
2E\	.	2e\	-le-	2g\	.	.	.
!	!	!	!	!	!	!LO:LB:g=original	!
=7	=7	=7	=7	=7	=7	=7	=7
2C/	-le-	2e\	-lu-	1g	.	4cc\	-le-
.	.	.	.	.	.	4b-\	.
2D\	.	1d	.	.	.	1a	-lu-
2D\	-lu-	.	.	2f#X\	-lu-	.	.
=8	=8	=8	=8	=8	=8	=8	=8
2GG/	-ia	2d\	-ia	2g\	-ia	2b-\	-ia
4G\	al-	2d\	al-	2d\	al-	1b-	al-
4F\	.	.	.	.	.	.	.
2E\	.	2e\	-le-	2e\	-le-	.	.
=9	=9	=9	=9	=9	=9	=9	=9
2A\	.	1e	-lu-	2e\	-lu-	2cc\	-le-
2E\	.	.	.	2g#X\	.	2ee\	.
2F\	.	2c\	-ia	2a\	-ia	2cc\	-lu-
=10	=10	=10	=10	=10	=10	=10	=10
2D\	-le-	2f\	al-	1a	al-	1.b-	-ia
2.E\	.	1e	-le-	.	.	.	.
.	.	.	.	2g#X\	-le-	.	.
4E\	-lu-	.	.	.	.	.	.
=11	=11	=11	=11	=11	=11	=11	=11
2AA/	-ia	2e\	-lu-	2a\	-lu-	2cc\	al-
2E\	al-	2c\	-ia	2gn\	-ia	1cc	-le-
2F\	.	2A\	al-	2f\	al-	.	.
!LO:LB:g=original	!	!	!	!	!	!	!
=12	=12	=12	=12	=12	=12	=12	=12
2C/	-le-	2G/	-le-	2e\	-le-	1cc	-lu-
2G\	.	1G	-lu-	1d	-lu-	.	.
2GG/	-lu-	.	.	.	.	2b-\	.
!	!	!	!	!LO:LB:g=original	!	!	!
=13	=13	=13	=13	=13	=13	=13	=13
1.C	-ia	1.G;	-ia	1.e	-ia.	1.cc	-ia,
!	!	!LO:LB:g=original	!	!	!	!	!
=14||	=14||	=14||	=14||	=14||	=14||	=14||	=14||
!LO:TX:a:t=2	!	!LO:TX:a:t=3.	!	!	!	!LO:TX:a:t=1.	!
0.r	.	0.r	.	2g\	A-	1.r	.
.	.	.	.	2g\	-ve	.	.
.	.	.	.	2g\	ma-	.	.
=15	=15	=15	=15	=15	=15	=15	=15
.	.	.	.	2.e\	-ri-	2cc\	A-
.	.	.	.	.	.	2cc\	-ve
.	.	.	.	4d\	.	.	.
!	!	!	!	!	!	!LO:LB:g=original	!
.	.	.	.	2c\	-a	2cc\	Ma-
=16	=16	=16	=16	=16	=16	=16	=16
2G\	A-	1.r	.	2d\	gra-	2.b-\	-ri-
2G\	-ve-	.	.	2d\	-ti-	.	.
.	.	.	.	.	.	4a\	.
2G\	-Ma-	.	.	2d\	-a	2g\	-a,
=17	=17	=17	=17	=17	=17	=17	=17
2.E\	-ri-	2c\	A-	2.e\	ple-	2g\	gra-
.	.	2c\	-ve	.	.	4b-\	.
4D\	.	.	.	4f\	.	4cc\	.
2C/	-a	2c\	ma-	2g\	-na	2cc\	.
=18	=18	=18	=18	=18	=18	=18	=18
2.BB-/	gra-	2.B-\	-ri-	2.g\	gra-	2.dd\	.
4BB-/	-ti-	4A\	.	4g\	-ti-	4dd\	-ti-
2C/	-a	2G/	-a	2g\	-a	2a\	-a
=19	=19	=19	=19	=19	=19	=19	=19
1D	ple-	2B-\	gra-	1fn	ple-	1dd	ple-
.	.	4B-\	-ti-	.	.	.	.
.	.	4d\	-a	.	.	.	.
2E\	-na	4c\	ple-	2e\	-na	2g\	-na
.	.	4B-\	-na	.	.	.	.
!LO:LBLg=original	!	!	!	!LO:LB:g=original	!	!	!
=20	=20	=20	=20	=20	=20	=20	=20
2.F\	Do-	2.A\	Do-	2.a\	Do-	2.cc\	Do-
4G\	-mi-	4B-\	-mi-	4g\	-mi-	4b-X\	-mi-
2A\	-nus	2c\	-nus	2f\	-nus	2a\	-nus
=21	=21	=21	=21	=21	=21	=21	=21
2B-X\	te-	2d\	te-	1f	te-	1.g	te-
2c\	.	1c	-cum	.	.	.	.
2C/	.	.	.	2e\	.	.	.
!	!	!	!	!	!	!LO:LB:g=original	!
=22	=22	=22	=22	=22	=22	=22	=22
2F\	-cum	2c\	cum	2f\	-cum	2a\	-cum
!	!	!LO:LB:g=original	!	!	!	!	!
2r	.	2f\	be-	2r	.	2r	.
2r	.	2f\	-ne-	2r	.	2r	.
=23	=23	=23	=23	=23	=23	=23	=23
!	!	!	!	!LO:TX:a:t=1.	!	!LO:TX:a:t=1.	!
2r	.	2.e\	-di-	1.r	.	1.r	.
2c\	be-	.	.	.	.	.	.
.	.	4d\	.	.	.	.	.
2c\	-ne-	2c\	-cta	.	.	.	.
=24	=24	=24	=24	=24	=24	=24	=24
2.A\	-di-	1c	tu	2r	.	2r	.
.	.	.	.	2a\	be-	2ff\	be-
4G\	-cta	.	.	.	.	.	.
2F\	tu	2c\	in	2a\	-ne-	2ff\	-ne-
=25	=25	=25	=25	=25	=25	=25	=25
2E\	in	2c\	mu-	2g\	-di-	4ee\	-di-
.	.	.	.	.	.	4dd\	-cta
2F\	mu-	2A\	.	4fn\	-cta	4cc\	tu
.	.	.	.	4f\	tu	4cc\	in
2C/	-li-	2e\	-li-	2g\	in	2cc\	mu-
!LO:LB:g=original	!	!	!	!	!	!	!
=26	=26	=26	=26	=26	=26	=26	=26
2C/	-e-	2e\	-e-	4a\	mu-	2cc\	-li-
.	.	.	.	4a\	-li-	.	.
!	!	!	!	!LO:LB:g=original	!	!	!
2.BB-X/	.	2f\	.	2a\	-e-	2.dd\	-e-
.	.	2d\	-ri-	2g#X\	-ri-	.	.
4BB-/	-ri-	.	.	.	.	4dd\	-ri-
=27	=27	=27	=27	=27	=27	=27	=27
1AA	-bus	1e	-bus,	1a	-bus	1cc#X	-bus,
2A\	et	2e\	et	2a\	et	2cc#\	et
=28	=28	=28	=28	=28	=28	=28	=28
1Bn	be-	1d	be-	1g#X	be-	1dd	be-
2B\	-ne-	2d\	-ne-	2g#\	-ne	2dd\	-ne-
!	!	!LO:LB:g=original	!	!	!	!LO:LB:g=original	!
=29	=29	=29	=29	=29	=29	=29	=29
2c\	-dic-	2c\	-di-	2a\	dic-	2ee\	-dic-
2G#X\	-tus	2B-\	-ctus	2g#X\	-tus	2ee\	-tus
2A\	fruc-	2A\	fru-	2e\	fru-	2cc\	fruc-
=30	=30	=30	=30	=30	=30	=30	=30
2E\	-tus	2G#X/	-ctus	2e\	-ctus	2b-\	-tus
2A\	Ven-	2A\	ven-	2e\	ven-	2cc\	Ven-
2Gn\	-tris	2B-\	-tris	2g#X\	-tris	2ee\	-tris
=31	=31	=31	=31	=31	=31	=31	=31
1.F	tu-	2c\	tu-	1.a	tu-	1ee	tu-
.	.	2c\	-i	.	.	.	.
.	.	2A\	et	.	.	2dd#X\	.
=32	=32	=32	=32	=32	=32	=32	=32
2E\	-i,	2B-\	be-	2g#X\	-i	2ee\	-i.
2C/	be-	2e\	.	2gn\	be-	2g\	be-
2E\	-ne-	2c\	-ne-	2e\	-ne-	2cc\	-ne-
!LO:LB:g=original	!	!	!	!LO:LB:g=original	!	!	!
=33	=33	=33	=33	=33	=33	=33	=33
2F\	-dic-	2f\	-di-	2c\	-dic-	2a\	-dic-
2D\	.	1A	-ctus	2f\	.	2dd\	.
2F\	-tus	.	.	2f\	-tus	2dd\	-dus
=34	=34	=34	=34	=34	=34	=34	=34
2G\	frug-	1B-	fru-	2d\	fru-	2b-\	fru-
2E\	.	.	.	2g\	.	2ee\	.
2G\	-tus	2B-\	-ctus	2g\	-ctus	2ee\	-ctus
=35	=35	=35	=35	=35	=35	=35	=35
2A\	ven-	1c	ven-	2e\	ven-	2cc\	ven-
2F\	.	.	.	2a\	.	1ff	-tris
2A\	-tris	2c\	-tris	2a\	-tris	.	.
!	!	!LO:LB:g=original	!	!	!	!LO:LB:g=original	!
=36	=36	=36	=36	=36	=36	=36	=36
2Bn\	tu-	1B-	ven-	2f\	tu-	1dd	ven-
2G\	-i	.	.	2g\	.	.	.
2c\	al-	2c\	.	2e\	-i	2ee\	-tris
=37	=37	=37	=37	=37	=37	=37	=37
2F\	-le-	2c\	-tris	2a\	tu-	1.dd	tu-
2G\	.	2c\	tu-	1g	.	.	.
2GG/	-lu-	2B-\	.	.	.	.	.
=38	=38	=38	=38	=38	=38	=38	=38
!LO:TX:b:t=Alleluia Da Capo.	!	!LO:TX:a:t=Alleluia Da Capo.	!	!LO:TX:b:t=Alleluia Da Capo.	!	!LO:TX:a:t=Alleluia Da Capo.	!
1.C	-ia.	1.c	-i.	1.g	-i	1.ee	-i.
==	==	==	==	==	==	==	==
*-	*-	*-	*-	*-	*-	*-	*-
!!!system-decoration: [(s1,s2,s3,s4)]
!!!ENC: Anastazja Marusiak
!!!END: 2023-10-30
!!!ENC: Leszek Kubiak
!!!END: 2024-06-23
